X:181
T:Spinning 
R:
C:Bruce Osborne - Dec. 2002
Z:abc by bosborne@kos.net
M:3/4
L:1/8
K:Amaj
ED|C2 E2 Ac|f2 e2 Ac|f2 e2 cA|E4 Bc|\
dc de gf|ef eB AB|cB AF ED|C4 ED|\
C2 E2 Ac|f2 e2 Ac|f2 e2 cA|E4 Bc|\
dc de gf|ef eB AB|cB AE cB|A4||\
ED|C2 E2 AB|cB A2 cd|ec AE dc|B3 A Bc|\
dc de gf|ef eB AB|cB AF ED|C4 ED|\
C2 E2 AB|cB A2 cd|ec AE dc|B3 A Bc|\
dc de gf|ef eB AB|cB AE cB|A4||
